X:0437
T:The Humour's of the point.
M:2/4
L:1/16
Q:1/4=104
I: :: ::
Z:Jack Campin * www.campin.me.uk * 2009
K:G
ef|:g2dB     e2cA   | d2BG    AFED| g2dB     e2cA   |AGAF G2G2::
    g2fg     afed   | egfa    g2g2| g2fg     afed   |BGAF G2G2::
   .d.d(dg) .c.c(ca)|.B.B(Bg) AFED|.d.d(dg) .c.c(ca)|BGAF G2G2:|
<end>
<start>
